X:408
T: "Der Traum"
N: Z1088
O: Europa, Mitteleuropa, Deutschland, Rhein
R: Romanze, Ballade
M: 4/4
L: 1/8
K: Ab
E2 | A2c2B2c2 | A3GF2
GA | B3BAGFE | E4
A4 | BBBBedcB | B4cz
AG | F2A2B2cB | A4z2

